web/packages/design/src/ResourceIcon/assets/sequoia-light.svg

<svg width="72" height="72" viewBox="0 0 72 72" fill="none" xmlns="http://www.w3.org/2000/svg">
<g clip-path="url(#clip0_16966_12007)">
<path d="M53.999 0.00195312H71.9988V18.002H53.999V0.00195312Z" fill="#007354"/>
<path d="M8.99988 56.5122V0.00195312H0V65.604L8.99988 56.5122Z" fill="#007354"/>
<path d="M15.3095 63.002L6.30957 72.002H71.9994V63.002H15.3095Z" fill="#007354"/>
<path d="M27.0009 38.604V0.00195312H18.001V47.604L27.0009 38.604Z" fill="#007354"/>
<path d="M33.3072 45.0024L24.2764 54.0024H71.9973V45.0024H33.3072Z" fill="#007354"/>
<path d="M44.9676 20.6958V0.00195312H35.9678V29.604L44.9676 20.6958Z" fill="#007354"/>
<path d="M51.3097 27.0015L42.3408 36.0015H72.0002V27.0015H51.3097Z" fill="#007354"/>
</g>
<defs>
<clipPath id="clip0_16966_12007">
<rect width="72" height="72.0002" fill="white" transform="translate(0 0.00195312)"/>
</clipPath>
</defs>
</svg>

<svg xmlns="http://www.w3.org/2000/svg" width="72" height="72" fill="none" viewBox="0 0 72 72"><g fill="#007354" clip-path="url(#a)"><path d="M53.999.002h18v18h-18zM9 56.512V.002H0v65.602zm6.31 6.49-9 9H72v-9zM27 38.604V.002h-8.999v47.602zm6.307 6.398-9.03 9h47.72v-9zm11.661-24.306V.002h-9v29.602zm6.342 6.306-8.97 9H72v-9z"/></g><defs><clipPath id="a"><path fill="#fff" d="M0 .002h72v72H0z"/></clipPath></defs></svg>
